icons/Rocket_filled.svg

<svg width="24" height="24" viewBox="0 0 24 24" fill="none" xmlns="http://www.w3.org/2000/svg">
<path fill-rule="evenodd" clip-rule="evenodd" d="M7.71604,10.857c0.67503,-0.8167 1.35277,-1.6367 2.05819,-2.42261c-0.97144,-0.57377 -2.26731,-0.33567 -2.95408,0.63496l-1.61947,2.28885l2.10277,-0.0026c0.13756,-0.1658 0.27501,-0.3321 0.41258,-0.4986zM5.59566,8.20297c1.21616,-1.71885 3.57462,-2.06397 5.22134,-0.87774c2.4221,-2.4432 5.2721,-4.32523 9.433,-4.32523c0.1989,0 0.3897,0.07902 0.5303,0.21967c0.1407,0.14065 0.2197,0.33142 0.2197,0.53033c0,4.16173 -1.884,7.0163 -4.3228,9.4363c1.1837,1.6468 0.8388,4.0031 -0.8782,5.2199l-3.4654,2.4557c-0.2287,0.1621 -0.5288,0.1831 -0.7779,0.0544c-0.2491,-0.1287 -0.4056,-0.3856 -0.4057,-0.666l-0.0017,-3.5916l-3.8031,-3.8031l-3.59427,0.0044c-0.28051,0.0003 -0.53776,-0.1559 -0.66682,-0.4049c-0.12907,-0.2491 -0.10837,-0.5493 0.05365,-0.7783zM12.6484,16.6997l0.0009,2.1l2.2824,-1.6174c0.9693,-0.6869 1.2077,-1.981 0.6364,-2.9525c-0.7868,0.7066 -1.6071,1.3845 -2.423,2.0588l-0.0006,0.0005c-0.1657,0.137 -0.3312,0.2737 -0.4961,0.4106zM6.27224,16.5128c-0.0042,0.0051 -0.00997,0.0127 -0.01709,0.0232c-0.01452,0.0214 -0.03243,0.0513 -0.05278,0.0915c-0.04137,0.0818 -0.08459,0.1896 -0.1273,0.3229c-0.08579,0.2678 -0.15455,0.5908 -0.20761,0.9156c-0.01889,0.1156 -0.03542,0.2292 -0.04984,0.3377c0.10855,-0.0144 0.2221,-0.0309 0.33771,-0.0498c0.3248,-0.0531 0.6478,-0.1218 0.91558,-0.2076c0.13331,-0.0427 0.24112,-0.086 0.32289,-0.1273c0.04024,-0.0204 0.07019,-0.0383 0.09153,-0.0528c0.01048,-0.0071 0.01807,-0.0129 0.02324,-0.0171c0.00211,-0.0017 0.00372,-0.0031 0.00489,-0.0041c0.0017,-0.0015 0.00245,-0.0023 0.0024,-0.0022c0.34167,-0.3417 0.34167,-0.8956 0,-1.2373c-0.34167,-0.3417 -0.89563,-0.3417 -1.2373,0c0,0 -0.00218,0.0022 -0.00632,0.0073zM5.02296,19.788c-0.00011,0 -0.00021,0 -0.04072,-0.7489c-0.74891,-0.0405 -0.7489,-0.0406 -0.7489,-0.0407l0.00002,-0.0003l0.00004,-0.0007l0.00011,-0.002l0.00039,-0.0068l0.00142,-0.0235c0.00125,-0.0201 0.00312,-0.0488 0.00571,-0.085c0.00517,-0.0725 0.01323,-0.1754 0.02492,-0.3004c0.02329,-0.2489 0.06148,-0.5903 0.12113,-0.9555c0.05912,-0.3619 0.14219,-0.7652 0.25951,-1.1314c0.10901,-0.3402 0.27999,-0.7567 0.57131,-1.048c0.92745,-0.9274 2.43116,-0.9274 3.35862,0c0.92746,0.9275 0.92746,2.4312 0,3.3587c-0.29132,0.2913 -0.70772,0.4623 -1.04795,0.5713c-0.3662,0.1173 -0.76953,0.2004 -1.1314,0.2595c-0.36517,0.0596 -0.70659,0.0978 -0.95556,0.1211c-0.12499,0.0117 -0.22789,0.0197 -0.30031,0.0249c-0.03624,0.0026 -0.06493,0.0045 -0.08502,0.0057l-0.02358,0.0015l-0.00672,0.0003l-0.00206,0.0002h-0.0007zM4.98224,19.0391l0.04051,0.7489c-0.21268,0.0115 -0.42023,-0.0679 -0.57084,-0.2186c-0.15061,-0.1506 -0.23008,-0.3581 -0.21858,-0.5708z" fill="#002B51"/>
</svg>

<svg width="24" height="24" viewBox="0 0 24 24" fill="none" xmlns="http://www.w3.org/2000/svg">
<path fill-rule="evenodd" clip-rule="evenodd" d="M7.71604 10.857C8.39107 10.0403 9.06881 9.2203 9.77423 8.43439C8.80279 7.86062 7.50692 8.09872 6.82015 9.06935L5.20068 11.3582L7.30345 11.3556C7.44101 11.1898 7.57846 11.0235 7.71603 10.857L7.71604 10.857ZM5.59566 8.20297C6.81182 6.48412 9.17028 6.139 10.817 7.32523C13.2391 4.88203 16.0891 3 20.25 3C20.4489 3 20.6397 3.07902 20.7803 3.21967C20.921 3.36032 21 3.55109 21 3.75C21 7.91173 19.116 10.7663 16.6772 13.1863C17.8609 14.8331 17.516 17.1894 15.799 18.4062L12.3336 20.8619C12.1049 21.024 11.8048 21.045 11.5557 20.9163C11.3066 20.7876 11.1501 20.5307 11.15 20.2503L11.1483 16.6587L7.3452 12.8556L3.75093 12.86C3.47042 12.8603 3.21317 12.7041 3.08411 12.4551C2.95504 12.206 2.97574 11.9058 3.13776 11.6768L5.59566 8.20297ZM12.6484 16.6997L12.6493 18.7997L14.9317 17.1823C15.901 16.4954 16.1394 15.2013 15.5681 14.2298C14.7813 14.9364 13.961 15.6143 13.1451 16.2886L13.1445 16.2891C12.9788 16.4261 12.8133 16.5628 12.6484 16.6997ZM6.27856 16.5055C6.62023 16.1638 7.17419 16.1638 7.51586 16.5055C7.85753 16.8472 7.85753 17.4011 7.51586 17.7428C7.51591 17.7427 7.51516 17.7435 7.51346 17.745C7.51229 17.746 7.51068 17.7474 7.50857 17.7491C7.5034 17.7533 7.49581 17.7591 7.48533 17.7662C7.46399 17.7807 7.43404 17.7986 7.3938 17.819C7.31203 17.8603 7.20422 17.9036 7.07091 17.9463C6.80313 18.0321 6.48013 18.1008 6.15533 18.1539C6.03972 18.1728 5.92617 18.1893 5.81762 18.2037C5.83204 18.0952 5.84857 17.9816 5.86746 17.866C5.92052 17.5412 5.98928 17.2182 6.07507 16.9504C6.11778 16.8171 6.161 16.7093 6.20237 16.6275C6.22272 16.5873 6.24063 16.5574 6.25515 16.536C6.26227 16.5255 6.26804 16.5179 6.27224 16.5128C6.27638 16.5077 6.27856 16.5055 6.27856 16.5055ZM5.02296 19.788C5.02285 19.788 5.02275 19.788 4.98224 19.0391C4.23333 18.9986 4.23334 18.9985 4.23334 18.9984L4.23336 18.9981L4.2334 18.9974L4.23351 18.9954L4.2339 18.9886L4.23532 18.9651C4.23657 18.945 4.23844 18.9163 4.24103 18.8801C4.2462 18.8076 4.25426 18.7047 4.26595 18.5797C4.28924 18.3308 4.32743 17.9894 4.38708 17.6242C4.4462 17.2623 4.52927 16.859 4.64659 16.4928C4.7556 16.1526 4.92658 15.7361 5.2179 15.4448C6.14535 14.5174 7.64906 14.5174 8.57652 15.4448C9.50398 16.3723 9.50398 17.876 8.57652 18.8035C8.2852 19.0948 7.8688 19.2658 7.52857 19.3748C7.16237 19.4921 6.75904 19.5752 6.39717 19.6343C6.032 19.6939 5.69058 19.7321 5.44161 19.7554C5.31662 19.7671 5.21372 19.7751 5.1413 19.7803C5.10506 19.7829 5.07637 19.7848 5.05628 19.786L5.0327 19.7875L5.02598 19.7878L5.02392 19.788L5.02322 19.788L5.02296 19.788ZM4.98224 19.0391L5.02275 19.788C4.81007 19.7995 4.60252 19.7201 4.45191 19.5694C4.3013 19.4188 4.22183 19.2113 4.23333 18.9986L4.98224 19.0391Z" fill="#002B51"/>
</svg>
